RestoDelMundo/Polonia/Otras Categorias/Ks Amica.svg

<svg xmlns="http://www.w3.org/2000/svg" viewBox="0 0 612 792"><circle cx="306.576" cy="396.088" r="283.464" fill="#fff"/><path fill="#21409a" d="M93.96 396.088c0-117.432 95.184-212.616 212.616-212.616s212.616 95.184 212.616 212.616c0 50.976-17.928 97.776-47.88 134.424l50.328 41.04c39.096-47.808 62.496-108.936 62.496-175.464 0-153.288-124.272-277.56-277.559-277.56S29.017 242.8 29.017 396.088c0 66.528 23.4 127.656 62.496 175.464l50.328-41.04c-29.953-36.648-47.881-83.448-47.881-134.424"/><path fill="#e31f26" d="M484.056 426.184h-132.84c23.688 14.904 39.456 41.256 39.456 71.28 0 32.04-17.928 59.904-44.28 74.16 70.632-15.984 125.496-73.44 137.664-145.44M222.48 497.464c0-30.024 15.768-56.376 39.456-71.28h-132.84c12.168 72 67.032 129.456 137.664 145.44-26.352-14.256-44.28-42.12-44.28-74.16"/><path fill="#21409a" d="m117.216 596.896 25.272-55.44 14.616 11.448L138.6 586.96l29.448-25.488 12.456 9.72-17.928 34.488 28.44-26.28 14.256 11.16-47.592 37.944-14.904-11.592 16.56-32.112-27 23.904ZM191.592 647.152l19.512-55.944 26.784 9.36c8.352 2.88 13.896 6.192 16.56 10.008 2.736 3.744 3.168 8.496 1.152 14.184-1.224 3.384-2.88 5.976-5.184 7.704-2.232 1.8-5.112 2.736-8.64 3.024 2.88 1.656 4.68 3.816 5.4 6.264.432 1.224.576 2.664.432 4.176-.072 1.584-.432 3.24-1.08 5.112l-2.448 7.92v.216c-.792 2.16-.648 3.528.36 4.032l-.72 2.088-18.144-6.336.504-3.744c.144-1.008.36-1.872.576-2.448l1.944-5.544q1.512-4.32.432-6.696c-.72-1.584-2.52-2.88-5.328-3.888l-7.56-2.664-6.768 19.368zm28.944-25.776 8.136 2.88q4.212 1.512 6.264.864c1.368-.36 2.376-1.512 3.096-3.456.648-1.944.576-3.528-.216-4.608-.792-1.152-2.808-2.304-5.976-3.384l-7.704-2.736zM267.12 640.096c.288-9.648 3.312-17.136 9.072-22.536 5.688-5.328 13.248-7.848 22.824-7.56 9.36.36 16.776 3.384 22.104 9.144 5.256 5.76 7.776 13.464 7.416 23.112-.36 9.576-3.312 17.064-9 22.464-5.76 5.328-13.248 7.92-22.752 7.56-9.432-.36-16.848-3.384-22.176-9.144-5.328-5.832-7.848-13.464-7.488-23.04m19.152.648q-.324 8.316 2.376 12.312c1.8 2.664 4.68 4.104 8.712 4.248 3.888.144 6.84-1.08 8.784-3.6 1.872-2.52 2.952-6.552 3.168-12.096s-.576-9.72-2.304-12.384-4.608-4.032-8.568-4.176-6.984 1.008-8.928 3.6q-2.916 3.78-3.24 12.096M353.808 668.32l-15.984-57.024 17.424-4.896 23.4 22.104c.648.576 1.44 1.44 2.448 2.736.864 1.152 1.944 2.592 3.168 4.464-.36-.864-.648-1.44-.792-1.8s-.36-.864-.504-1.44l-1.368-4.392-7.488-26.928 17.496-4.896 15.912 57.096-17.496 4.824-23.328-21.816a40 40 0 0 1-2.592-2.88l-3.096-4.392 1.296 3.096c.216.864.504 1.656.72 2.376.216.792.432 1.512.72 2.16l7.416 26.784zM433.728 641.248l-32.256-49.68 15.84-10.296 10.656 16.488 3.6-25.776 18.576-12.024-5.904 29.88 40.392 18.36-19.008 12.312-25.056-12.024-1.296 6.624 10.296 15.84ZM496.944 594.592l-42.552-41.328 13.536-13.896 42.48 41.256Z"/><path fill="#fff" d="m330.552 150.712-10.584-6.984.864-12.6-12.024 3.96-9.288-8.568-4.392 11.88-12.528 1.944 6.552 10.8-6.264 11.016 12.528 1.656 4.68 11.736 9.072-8.712 12.096 3.672-1.152-12.6ZM550.368 506.608l-10.584-6.984.864-12.6-12.024 3.96-9.288-8.568-4.392 11.808-12.528 1.944 6.552 10.872-6.336 11.016 12.6 1.656 4.68 11.736 9.072-8.784 12.096 3.672-1.152-12.6ZM92.088 344.536l-10.584-6.984.864-12.6-12.024 3.96-9.288-8.568-4.464 11.88-12.456 1.944 6.48 10.8-6.264 11.016 12.528 1.656 4.68 11.736 9.144-8.712 12.096 3.672-1.152-12.6ZM571.392 344.536l-10.584-6.984.936-12.6-12.024 3.96-9.36-8.568-4.392 11.88-12.528 1.944 6.552 10.8-6.264 11.016 12.528 1.656 4.68 11.736 9.144-8.712 12.096 3.672-1.224-12.6ZM485.856 205.216l-10.584-6.912.864-12.672-12.024 3.96-9.288-8.568-4.464 11.88-12.456 1.944 6.48 10.872-6.264 10.944 12.528 1.656 4.68 11.808 9.144-8.784 12.096 3.672-1.152-12.6ZM177.624 205.216l-10.584-6.912.936-12.672-12.024 3.96-9.36-8.568-4.392 11.88-12.528 1.944 6.552 10.872-6.264 10.944 12.528 1.656 4.68 11.808 9.144-8.784 12.096 3.672-1.224-12.6ZM113.112 506.608l-10.584-6.984.864-12.6-12.024 3.96-9.288-8.568-4.392 11.808-12.528 1.944 6.552 10.872-6.336 11.016 12.6 1.656 4.68 11.736 9.072-8.784 12.168 3.672-1.224-12.6Z"/><path fill="#e31f26" d="M341.712 318.616c14.688 0 26.928 10.584 29.592 24.48h107.28c-22.608-73.512-91.08-126.936-172.008-126.936s-149.4 53.424-172.008 126.936h177.48c2.664-13.896 14.904-24.48 29.664-24.48M371.88 348.856c0-.792-.072-1.512-.072-2.232h-60.192c-.072.72-.144 1.44-.144 2.232 0 .72.072 1.44.144 2.232h60.192c0-.792.072-1.512.072-2.232M313.632 359.944h56.088c.576-1.44 1.08-2.88 1.44-4.464h-58.896c.36 1.584.792 3.024 1.368 4.464"/><path fill="#21409a" d="M375.192 497.464c0 37.944-30.744 68.688-68.616 68.688s-68.616-30.744-68.616-68.688c0-37.872 30.744-68.616 68.616-68.616s68.616 30.744 68.616 68.616"/><path fill="#e31f26" d="M333.144 386.872h17.064v36.144h-17.064ZM387.72 407.464c-8.28 0-15.048-6.696-15.048-14.904 0-8.28 6.768-14.976 15.048-14.976 4.896 0 9.288 2.376 12.024 6.048l11.448-10.872c-5.616-6.696-14.04-10.944-23.472-10.944-16.992 0-30.744 13.752-30.744 30.744 0 16.92 13.752 30.672 30.744 30.672 9.432 0 17.856-4.248 23.472-10.944l-11.448-10.872c-2.736 3.672-7.128 6.048-12.024 6.048M474.12 392.56c0-16.992-13.752-30.744-30.744-30.744s-30.744 13.752-30.744 30.744c0 16.92 13.752 30.672 30.744 30.672 4.248 0 8.28-.864 11.952-2.376V401.56a14.94 14.94 0 0 1-11.952 5.904c-8.28 0-14.976-6.696-14.976-14.904 0-8.28 6.696-14.976 14.976-14.976s14.976 6.696 14.976 14.976v30.456h15.768zM309.024 409.264h16.992v13.752h-16.992ZM226.584 409.264h17.064v13.752h-17.064ZM267.84 409.264h17.064v13.752H267.84ZM243.648 391.048c0-6.696 5.4-12.096 12.096-12.096s12.096 5.4 12.096 12.096v11.592h17.064v-11.592c0-6.696 5.4-12.096 12.096-12.096s12.024 5.4 12.024 12.096v11.592h16.992v-11.592c0-15.264-12.312-27.576-27.504-27.576-9.072 0-17.136 4.392-22.176 11.16-4.968-6.767-13.032-11.16-22.176-11.16-15.192 0-27.576 12.312-27.576 27.576v11.592h17.064zM189.072 361.6c-5.688-11.016-12.6-18.576-25.56-17.208l1.656 12.888c5.04.144 6.912 3.024 9.144 7.272l18.72 36.072H166.68l10.44-20.088-7.056-13.68c-2.088.936-4.32 4.104-5.76 6.984l-25.488 49.176h16.272l6.84-13.248h35.784l6.84 13.248h16.344z"/><path fill="#fff" d="m348.84 468.808 8.784 27-10.008 12.6-13.536-4.392-9.072-28.008 8.352-11.52ZM255.528 495.808l8.784-27 15.48-4.32 8.352 11.52-9.072 28.008-13.536 4.392ZM304.344 539.944l-15.12 5.616-22.968-16.704.648-16.056 13.608-4.392 23.832 17.28ZM291.888 473.344l-8.352-11.52 8.856-13.392h28.368l8.856 13.392-8.352 11.52ZM323.928 545.56l-15.12-5.616v-14.256l23.832-17.28 13.608 4.392.648 16.056ZM350.784 511.864l.648 17.136 7.2 4.248c6.696-9.72 10.728-21.456 11.088-34.128l-8.352-.72zM333.864 459.88l16.488 4.608 6.336-5.472c-7.416-9.576-17.424-16.992-29.016-21.096l-3.312 7.704zM279.288 459.88l9.504-14.256-3.312-7.704c-11.592 4.104-21.6 11.52-29.016 21.096l6.336 5.472zM306.576 543.976l-16.056 5.976-1.872 8.136c5.688 1.656 11.736 2.592 17.928 2.592s12.24-.936 17.928-2.592l-1.872-8.136zM262.368 511.864 251.784 498.4l-8.352.72c.36 12.672 4.392 24.408 11.088 34.128l7.2-4.248z"/></svg>

<svg enable-background="new 0 0 612 792" viewBox="0 0 612 792" xmlns="http://www.w3.org/2000/svg"><circle cx="306.576" cy="396.088" fill="#fff" r="283.464"/><path d="M 93.96 396.088 c 0 -117.432 95.184 -212.616 212.616 -212.616 c 117.432 0 212.616 95.184 212.616 212.616 c 0 50.976 -17.928 97.776 -47.88 134.424 l 50.328 41.04 c 39.096 -47.808 62.496 -108.936 62.496 -175.464 c 0 -153.288 -124.272 -277.56 -277.559 -277.56 c -153.288 0 -277.56 124.272 -277.56 277.56 c 0 66.528 23.4 127.656 62.496 175.464 l 50.328 -41.04 C 111.888 493.864 93.96 447.064 93.96 396.088 z" fill="#21409a"/><path d="M 484.056 426.184 h -132.84 c 23.688 14.904 39.456 41.256 39.456 71.28 c 0 32.04 -17.928 59.904 -44.28 74.16 C 417.024 555.64 471.888 498.184 484.056 426.184 z" fill="#e31f26"/><path d="M 222.48 497.464 c 0 -30.024 15.768 -56.376 39.456 -71.28 h -132.84 c 12.168 72 67.032 129.456 137.664 145.44 C 240.408 557.368 222.48 529.504 222.48 497.464 z" fill="#e31f26"/><path d="M 117.216 596.896 L 142.488 541.456 L 157.104 552.904 L 138.6 586.96 L 168.048 561.472 L 180.504 571.192 L 162.576 605.68 L 191.016 579.4 L 205.272 590.56 L 157.68 628.504 L 142.776 616.912 L 159.336 584.8 L 132.336 608.704 Z" fill="#21409a"/><path d="M 191.592 647.152 l 19.512 -55.944 l 26.784 9.36 c 8.352 2.88 13.896 6.192 16.56 10.008 c 2.736 3.744 3.168 8.496 1.152 14.184 c -1.224 3.384 -2.88 5.976 -5.184 7.704 c -2.232 1.8 -5.112 2.736 -8.64 3.024 c 2.88 1.656 4.68 3.816 5.4 6.264 c .432 1.224 .576 2.664 .432 4.176 c -.072 1.584 -.432 3.24 -1.08 5.112 l -2.448 7.92 v .216 c -.792 2.16 -.648 3.528 .36 4.032 l -.72 2.088 l -18.144 -6.336 l .504 -3.744 c .144 -1.008 .36 -1.872 .576 -2.448 l 1.944 -5.544 c 1.008 -2.88 1.152 -5.112 .432 -6.696 c -.72 -1.584 -2.52 -2.88 -5.328 -3.888 l -7.56 -2.664 l -6.768 19.368 L 191.592 647.152 L 191.592 647.152 z M 220.536 621.376 l 8.136 2.88 c 2.808 1.008 4.896 1.296 6.264 .864 c 1.368 -.36 2.376 -1.512 3.096 -3.456 c .648 -1.944 .576 -3.528 -.216 -4.608 c -.792 -1.152 -2.808 -2.304 -5.976 -3.384 l -7.704 -2.736 L 220.536 621.376 z" fill="#21409a"/><path d="M 267.12 640.096 c .288 -9.648 3.312 -17.136 9.072 -22.536 c 5.688 -5.328 13.248 -7.848 22.824 -7.56 c 9.36 .36 16.776 3.384 22.104 9.144 c 5.256 5.76 7.776 13.464 7.416 23.112 c -.36 9.576 -3.312 17.064 -9 22.464 c -5.76 5.328 -13.248 7.92 -22.752 7.56 c -9.432 -.36 -16.848 -3.384 -22.176 -9.144 C 269.28 657.304 266.76 649.672 267.12 640.096 L 267.12 640.096 z M 286.272 640.744 c -.216 5.544 .576 9.648 2.376 12.312 c 1.8 2.664 4.68 4.104 8.712 4.248 c 3.888 .144 6.84 -1.08 8.784 -3.6 c 1.872 -2.52 2.952 -6.552 3.168 -12.096 c .216 -5.544 -.576 -9.72 -2.304 -12.384 c -1.728 -2.664 -4.608 -4.032 -8.568 -4.176 c -3.96 -.144 -6.984 1.008 -8.928 3.6 C 287.568 631.168 286.488 635.2 286.272 640.744 z" fill="#21409a"/><path d="M 353.808 668.32 l -15.984 -57.024 l 17.424 -4.896 l 23.4 22.104 c .648 .576 1.44 1.44 2.448 2.736 c .864 1.152 1.944 2.592 3.168 4.464 c -.36 -.864 -.648 -1.44 -.792 -1.8 c -.144 -.36 -.36 -.864 -.504 -1.44 l -1.368 -4.392 l -7.488 -26.928 l 17.496 -4.896 l 15.912 57.096 l -17.496 4.824 l -23.328 -21.816 c -.72 -.72 -1.584 -1.656 -2.592 -2.88 l -3.096 -4.392 l 1.296 3.096 c .216 .864 .504 1.656 .72 2.376 c .216 .792 .432 1.512 .72 2.16 l 7.416 26.784 L 353.808 668.32 z" fill="#21409a"/><path d="M 433.728 641.248 L 401.472 591.568 L 417.312 581.272 L 427.968 597.76 L 431.568 571.984 L 450.144 559.96 L 444.24 589.84 L 484.632 608.2 L 465.624 620.512 L 440.568 608.488 L 439.272 615.112 L 449.568 630.952 Z" fill="#21409a"/><path d="M 496.944 594.592 L 454.392 553.264 L 467.928 539.368 L 510.408 580.624 Z" fill="#21409a"/><path d="M 330.552 150.712 L 319.968 143.728 L 320.832 131.128 L 308.808 135.088 L 299.52 126.52 L 295.128 138.4 L 282.6 140.344 L 289.152 151.144 L 282.888 162.16 L 295.416 163.816 L 300.096 175.552 L 309.168 166.84 L 321.264 170.512 L 320.112 157.912 Z" fill="#fff"/><path d="M 550.368 506.608 L 539.784 499.624 L 540.648 487.024 L 528.624 490.984 L 519.336 482.416 L 514.944 494.224 L 502.416 496.168 L 508.968 507.04 L 502.632 518.056 L 515.232 519.712 L 519.912 531.448 L 528.984 522.664 L 541.08 526.336 L 539.928 513.736 Z" fill="#fff"/><path d="M 92.088 344.536 L 81.504 337.552 L 82.368 324.952 L 70.344 328.912 L 61.056 320.344 L 56.592 332.224 L 44.136 334.168 L 50.616 344.968 L 44.352 355.984 L 56.88 357.64 L 61.56 369.376 L 70.704 360.664 L 82.8 364.336 L 81.648 351.736 Z" fill="#fff"/><path d="M 571.392 344.536 L 560.808 337.552 L 561.744 324.952 L 549.72 328.912 L 540.36 320.344 L 535.968 332.224 L 523.44 334.168 L 529.992 344.968 L 523.728 355.984 L 536.256 357.64 L 540.936 369.376 L 550.08 360.664 L 562.176 364.336 L 560.952 351.736 Z" fill="#fff"/><path d="M 485.856 205.216 L 475.272 198.304 L 476.136 185.632 L 464.112 189.592 L 454.824 181.024 L 450.36 192.904 L 437.904 194.848 L 444.384 205.72 L 438.12 216.664 L 450.648 218.32 L 455.328 230.128 L 464.472 221.344 L 476.568 225.016 L 475.416 212.416 Z" fill="#fff"/><path d="M 177.624 205.216 L 167.04 198.304 L 167.976 185.632 L 155.952 189.592 L 146.592 181.024 L 142.2 192.904 L 129.672 194.848 L 136.224 205.72 L 129.96 216.664 L 142.488 218.32 L 147.168 230.128 L 156.312 221.344 L 168.408 225.016 L 167.184 212.416 Z" fill="#fff"/><path d="M 113.112 506.608 L 102.528 499.624 L 103.392 487.024 L 91.368 490.984 L 82.08 482.416 L 77.688 494.224 L 65.16 496.168 L 71.712 507.04 L 65.376 518.056 L 77.976 519.712 L 82.656 531.448 L 91.728 522.664 L 103.896 526.336 L 102.672 513.736 Z" fill="#fff"/><path d="M 341.712 318.616 c 14.688 0 26.928 10.584 29.592 24.48 h 107.28 c -22.608 -73.512 -91.08 -126.936 -172.008 -126.936 c -80.928 0 -149.4 53.424 -172.008 126.936 h 177.48 C 314.712 329.2 326.952 318.616 341.712 318.616 z" fill="#e31f26"/><path d="M 371.88 348.856 c 0 -.792 -.072 -1.512 -.072 -2.232 h -60.192 c -.072 .72 -.144 1.44 -.144 2.232 c 0 .72 .072 1.44 .144 2.232 h 60.192 C 371.808 350.296 371.88 349.576 371.88 348.856 z" fill="#e31f26"/><path d="M 313.632 359.944 h 56.088 c .576 -1.44 1.08 -2.88 1.44 -4.464 h -58.896 C 312.624 357.064 313.056 358.504 313.632 359.944 z" fill="#e31f26"/><path d="M 375.192 497.464 c 0 37.944 -30.744 68.688 -68.616 68.688 c -37.872 0 -68.616 -30.744 -68.616 -68.688 c 0 -37.872 30.744 -68.616 68.616 -68.616 C 344.448 428.848 375.192 459.592 375.192 497.464 z" fill="#21409a"/><path d="M 333.144 386.872 H 350.208 V 423.016 H 333.144 Z" fill="#e31f26"/><path d="M 387.72 407.464 c -8.28 0 -15.048 -6.696 -15.048 -14.904 c 0 -8.28 6.768 -14.976 15.048 -14.976 c 4.896 0 9.288 2.376 12.024 6.048 l 11.448 -10.872 c -5.616 -6.696 -14.04 -10.944 -23.472 -10.944 c -16.992 0 -30.744 13.752 -30.744 30.744 c 0 16.92 13.752 30.672 30.744 30.672 c 9.432 0 17.856 -4.248 23.472 -10.944 l -11.448 -10.872 C 397.008 405.088 392.616 407.464 387.72 407.464 z" fill="#e31f26"/><path d="M 474.12 392.56 c 0 -16.992 -13.752 -30.744 -30.744 -30.744 c -16.992 0 -30.744 13.752 -30.744 30.744 c 0 16.92 13.752 30.672 30.744 30.672 c 4.248 0 8.28 -.864 11.952 -2.376 V 401.56 c -2.736 3.6 -7.056 5.904 -11.952 5.904 c -8.28 0 -14.976 -6.696 -14.976 -14.904 c 0 -8.28 6.696 -14.976 14.976 -14.976 c 8.28 0 14.976 6.696 14.976 14.976 v 30.456 h 15.768 V 392.56 z" fill="#e31f26"/><path d="M 309.024 409.264 H 326.016 V 423.016 H 309.024 Z" fill="#e31f26"/><path d="M 226.584 409.264 H 243.648 V 423.016 H 226.584 Z" fill="#e31f26"/><path d="M 267.84 409.264 H 284.904 V 423.016 H 267.84 Z" fill="#e31f26"/><path d="M 243.648 391.048 c 0 -6.696 5.4 -12.096 12.096 -12.096 c 6.696 0 12.096 5.4 12.096 12.096 v 11.592 h 17.064 v -11.592 c 0 -6.696 5.4 -12.096 12.096 -12.096 s 12.024 5.4 12.024 12.096 v 11.592 h 16.992 v -11.592 c 0 -15.264 -12.312 -27.576 -27.504 -27.576 c -9.072 0 -17.136 4.392 -22.176 11.16 c -4.968 -6.767 -13.032 -11.16 -22.176 -11.16 c -15.192 0 -27.576 12.312 -27.576 27.576 v 11.592 h 17.064 V 391.048 z" fill="#e31f26"/><path d="M 189.072 361.6 c -5.688 -11.016 -12.6 -18.576 -25.56 -17.208 l 1.656 12.888 c 5.04 .144 6.912 3.024 9.144 7.272 l 18.72 36.072 H 166.68 l 10.44 -20.088 l -7.056 -13.68 c -2.088 .936 -4.32 4.104 -5.76 6.984 l -25.488 49.176 h 16.272 l 6.84 -13.248 h 35.784 l 6.84 13.248 h 16.344 L 189.072 361.6 z" fill="#e31f26"/><path d="M 348.84 468.808 L 357.624 495.808 L 347.616 508.408 L 334.08 504.016 L 325.008 476.008 L 333.36 464.488 Z" fill="#fff"/><path d="M 255.528 495.808 L 264.312 468.808 L 279.792 464.488 L 288.144 476.008 L 279.072 504.016 L 265.536 508.408 Z" fill="#fff"/><path d="M 304.344 539.944 L 289.224 545.56 L 266.256 528.856 L 266.904 512.8 L 280.512 508.408 L 304.344 525.688 Z" fill="#fff"/><path d="M 291.888 473.344 L 283.536 461.824 L 292.392 448.432 L 320.76 448.432 L 329.616 461.824 L 321.264 473.344 Z" fill="#fff"/><path d="M 323.928 545.56 L 308.808 539.944 L 308.808 525.688 L 332.64 508.408 L 346.248 512.8 L 346.896 528.856 Z" fill="#fff"/><path d="M 350.784 511.864 L 351.432 529 l 7.2 4.248 c 6.696 -9.72 10.728 -21.456 11.088 -34.128 l -8.352 -.72 L 350.784 511.864 z" fill="#fff"/><path d="M 333.864 459.88 l 16.488 4.608 l 6.336 -5.472 c -7.416 -9.576 -17.424 -16.992 -29.016 -21.096 l -3.312 7.704 L 333.864 459.88 z" fill="#fff"/><path d="M 279.288 459.88 l 9.504 -14.256 l -3.312 -7.704 c -11.592 4.104 -21.6 11.52 -29.016 21.096 l 6.336 5.472 L 279.288 459.88 z" fill="#fff"/><path d="M 306.576 543.976 l -16.056 5.976 l -1.872 8.136 c 5.688 1.656 11.736 2.592 17.928 2.592 c 6.192 0 12.24 -.936 17.928 -2.592 l -1.872 -8.136 L 306.576 543.976 z" fill="#fff"/><path d="M 262.368 511.864 L 251.784 498.4 l -8.352 .72 c .36 12.672 4.392 24.408 11.088 34.128 l 7.2 -4.248 L 262.368 511.864 z" fill="#fff"/></svg>
